lib/flags/l/626.svg

<svg xmlns="http://www.w3.org/2000/svg" fill="none" viewBox="0 0 32 24"><mask id="626_svg__a" width="32" height="24" x="0" y="0" mask-type="alpha" maskUnits="userSpaceOnUse"><path fill="#fff" d="M0 0H32V24H0z"/></mask><g mask="url(#626_svg__a)"><path fill="#E31D1C" stroke="#F7FCFF" stroke-width="2" d="M0 -1H-1V0V24V25H0H32H33V24V0V-1H32H0Z"/><path fill="#FECA00" fill-rule="evenodd" d="M0 0L24 12L0 24V0Z" clip-rule="evenodd"/><path fill="#272727" fill-rule="evenodd" d="M0 0L16 12L0 24V0Z" clip-rule="evenodd"/><path fill="#F7FCFF" fill-rule="evenodd" d="M6.64792 14.4087L4.6284 16.5087L4.41743 13.5232L1.84197 11.9367L4.52784 11.0939L4.96709 8.13574L6.82657 10.478L9.5386 9.75128L8.13685 12.5266L9.49997 15.2034L6.64792 14.4087Z" clip-rule="evenodd"/></g></svg>

<svg xmlns="http://www.w3.org/2000/svg" fill="none" viewBox="0 0 32 24"><mask id="626_svg__a" width="32" height="24" x="0" y="0" maskUnits="userSpaceOnUse"><path fill="#fff" d="M0 0h32v24H0z"/></mask><g mask="url(#626_svg__a)"><path fill="#E31D1C" stroke="#F7FCFF" stroke-width="2" d="M0-1h-1v26h34V-1H0z"/><path fill="#FECA00" fill-rule="evenodd" d="M0 0l24 12L0 24V0z" clip-rule="evenodd"/><path fill="#272727" fill-rule="evenodd" d="M0 0l16 12L0 24V0z" clip-rule="evenodd"/><path fill="#F7FCFF" fill-rule="evenodd" d="M6.648 14.409l-2.02 2.1-.21-2.986-2.576-1.586 2.686-.843.44-2.958 1.859 2.342 2.712-.727-1.402 2.776L9.5 15.203l-2.852-.794z" clip-rule="evenodd"/></g></svg>
